TO CIRCLE_AND_SQUARE
SETPENSIZE [5 5]
SETPENCOLOR 10
REPEAT 4[FORWARD 100 RIGHT 90]
RIGHT 90
FORWARD 100
LEFT 90
FORWARD 50
REPEAT 360[FORWARD 1 RIGHT 1]
END

TO CIRCLEANDSQUARE
SQUARE
CIRCLE
END

TO RED
SETPENCOLOR 4
END

TO SQUARE
REPEAT 4[FORWARD  RIGHT 90]
END

