To dostuff :Butler
 forward :butler
 Right :butler
 back :butler
 right :butler
 forward :butler

end

to writecode
make "nextline questionbox [UserInput][Enter the next line of code]
until [:nextline = [end]] [
label :nextline
pu
rt 90
fd 30
lt 90
pd
make "nextline questionbox [UserInput][Enter the next line of code]
]
label :nextline
end

Make "butler 360
Make "he 25
Make "nextline [we live of of Cranton st.]
Make "she 50
Make "teonna 90
