to circle
repeat 360[forwad 1 right 1]
end

to circle_and_square
repeat 4[forward 100 right 90]
right 90
forward 100
left 90
forward 50
repeat 360 [forward 1 right 1]
end

To circles
repeat 360 [ forward 2 right 1]
end

to sguare 
repeat 5  [forward 200 right 90]
end

To squares
repeat 4 [forward  100 right 90]
end

