to circle
repeat 360 [forward 1 right 1]
end

To Circle_And_Square
Repeat 360 [ Forward 1 right i]
forward 50
repeat 3 [left 90 forward 100]
left 90
forward 50
end

to square
repeat 4[forward 100 right 90]
end

